X: 2135
T: The RENDEZVOUS
Q: "Reel."
R: Reel.
%R: reel
B: James Kerr "Merry Melodies" v.2 p.16 #135
Z: 2016 John Chambers <jc:trillian.mit.edu>
M: C
L: 1/8
K: G
uB |\
vG2(GD) B,DGF | EAAG FGAB |\
G2(GD) B,DGF | EGFA BGG :|\
c |\
(B/c/d) (dg) Bdgd |
(^c/d/e) (ea) ceae |\
[1 (B/c/d) (dg) Bdgd | egdg BGG :|\
[2 dgfa gdBG | EGFA BGG |]

%%sep 1 1 500
%%sep 1 1 500

